!!!!SEGMENT: Mou3001-Je_le_laray_puisquil_my_bat.krn
!!!id: Mou3001
!!!AGN: Chanson
!!!SCT: MacCracken (2014)
!!!voices: 4
!!!COM: Jean Mouton
!!!OTL: Je le laray puisqu'il my bat
**kern	**kern	**kern	**kern
*part4	*part3	*part2	*part1
*staff4	*staff3	*staff2	*staff1
*I"Bassus	*I"Tenor	*I"Altus	*I"Superius
*I'B	*I'T	*I'A	*I'S
*clefF4	*clefGv2	*clefGv2	*clefGv2
*k[]	*k[]	*k[]	*k[]
*C:	*C:	*C:	*C:
*M2/1	*M2/1	*M2/1	*M2/1
*met(C|)	*met(C|)	*met(C|)	*met(C|)
=1	=1	=1	=1
!	!	!	!LO:TX:a:t=Canon&colon; superius/altus at the fifth
1r	1A	0r	0r
1A	2A	.	.
.	2A	.	.
=2	=2	=2	=2
2A	2A	1r	1e
2A	2.c	.	.
2A	.	1A	2e
.	4B	.	.
[2c	[2A	.	2e
=3	=3	=3	=3
4c]	4A]	2A	1e
4B	4G	.	.
4A	4F	2A	.
4G	4E	.	.
4F	2.D	1A	1f
4E	.	.	.
4D	.	.	.
4C	4E	.	.
=4	=4	=4	=4
4BB	2F	1B	1d
4AA	.	.	.
2GG	2G	.	.
2.C	2.E	1G	1e
4BB	4D	.	.
=5	=5	=5	=5
1AA	2E	1A	1c
.	2.F	.	.
1D	.	1F	[1d
.	4D	.	.
.	2f	.	.
=6	=6	=6	=6
2BB	2d	1.G	2d]
2C	2.e	.	2c
1GG	.	.	1B
.	4d	.	.
.	[2d	2F	.
=7	=7	=7	=7
1AA	2d]	1E	0A
.	2c#i	.	.
2r	[1d	[1D	.
2D	.	.	.
=8	=8	=8	=8
2.F	1d]	1D]	2r
.	.	.	2c
4G	.	.	.
2A	2r	2r	1c
[2F	2A	2F	.
=9	=9	=9	=9
2F]	2A	1F	1d
4E	2B	.	.
4D	.	.	.
2.C	2c	1G	[1e
.	2c	.	.
4BB	.	.	.
=10	=10	=10	=10
2AA	2c	1.A	2e]
2D	2f	.	2d
4C	4e	.	1e
4D	4f	.	.
4E	[2g	2G	.
4C	.	.	.
=11	=11	=11	=11
4F	4g]	1A	1d
4D	4f	.	.
2F	1f	.	.
1C	.	1G	[1c
.	2e	.	.
=12	=12	=12	=12
1F	2.f	0F	1c]
.	8eL	.	.
.	8dJ	.	.
2r	1c	.	1r
2A	.	.	.
=13	=13	=13	=13
2A	2r	1r	1e
2A	2A	.	.
4c	2.A	1A	1e
4B	.	.	.
4A	.	.	.
4G	4B	.	.
=14	=14	=14	=14
1A	2c	1A	1f
.	2d	.	.
1G	[1e	1B	[1g
=15	=15	=15	=15
0C	2e]	1.c	2g]
.	2d	.	2f
.	2c	.	1e
.	[2g	2B	.
=16	=16	=16	=16
2D	4g]	1A	1d
.	4f	.	.
2F	1f	.	.
1C	.	1G	[1c
.	2e	.	.
=17	=17	=17	=17
1F	1f	[0F	0c]
1r	2r	.	.
.	2A	.	.
=18	=18	=18	=18
1A	2A	1F]	1r
.	2A	.	.
2A	2A	1r	1e
2A	[2c	.	.
=19	=19	=19	=19
2A	4c]	1A	2e
.	4B	.	.
2.c	2.A	.	2e
.	.	2A	1e
4B	4G	.	.
4A	4F	2A	.
4G	4E	.	.
=20	=20	=20	=20
4F	2.D	1A	1f
4E	.	.	.
4D	.	.	.
4C	4E	.	.
4BB	2F	1B	1d
4AA	.	.	.
2GG	2G	.	.
=21	=21	=21	=21
2.C	2.E	1G	1e
4BB	4D	.	.
1AA	2E	1A	1c
.	[2F	.	.
=22	=22	=22	=22
1D	4F]	1F	1.d
.	4D	.	.
.	2f	.	.
2BB	2d	[1G	.
2C	[2e	.	2c
=23	=23	=23	=23
1GG	2e]	2G]	1B
.	1d	2F	.
1AA	.	1E	[1A
.	2c#i	.	.
=24	=24	=24	=24
1D	1d	[0D	0A]
1r	2r	.	.
.	2A	.	.
=25	=25	=25	=25
1A	2A	1D]	1r
.	2A	.	.
2A	2A	1r	1e
2A	2c	.	.
=26	=26	=26	=26
2A	4c	1A	2e
.	4B	.	.
2.c	2.A	.	2e
.	.	2A	1e
4B	4G	.	.
4A	4F	2A	.
4G	4E	.	.
=27	=27	=27	=27
4F	2.D	1A	1f
4E	.	.	.
4D	.	.	.
4C	4E	.	.
4BB	2F	1B	1d
4AA	.	.	.
2GG	2G	.	.
=28	=28	=28	=28
2.C	2.E	1G	1e
4BB	4D	.	.
1AA	2E	1A	1c
.	[2F	.	.
=29	=29	=29	=29
1D	4F]	1F	1.d
.	4D	.	.
.	2f	.	.
2BB	2d	[1G	.
2C	[2e	.	2c
=30	=30	=30	=30
1GG	2e]	2G]	1B
.	1d	2F	.
1AA	.	1E	[1Al
.	2c#i	.	.
=31	=31	=31	=31
00Dl	00dl	00Dl	00A]
==	==	==	==
*-	*-	*-	*-
!!!system-decoration: [*]
!!!RDF**kern: i = editorial accidental
!!!RDF**kern: l = terminal long
!!!ENC: Benjamin Ory
!!!END: 2021/1/6
!!!EED: Benjamin Ory
!!!EEV: 2021/05/02
!!!YEC: Copyright 2021 Benjamin Ory, All Rights Reserved
!!!ONB: Translated from MusicXML on 2021/05/02
